X:11
T:Ouvre mes yeux - G79-1
C:J. Akepsimas
M:6/8
K:Dm
"Rem"FFF "Lam"G2F|"Rem"D6|"Rem"FFF "Lam"G2F|"Rem"D3- DFG|"Solm"AA2 GFD|"Fa7M"E3- E2D|\
"Sib7M"A2A AA2|
"Fa"cAG A3|"Sol7M"=BGA- "Fa7M"A3|"Sib"GFE "Rem"D3|"Sol7M"=BGA- "Fa7M"A3|"Sib"GFE "Rem"D3||
